X: 1
T: Pilgrim Sunrise
R: polka
M: 2/4
L: 1/8
K: Cmaj
G3 F|E3 C|FA cB|G3 E|FA cB|GA FD|EG FD|E3 c|
BG EB|A3 B|AF DA|G3 G|FD B,A|GE CG|FD B,D|C4|
G3 F|E3 C|FA cB|G3 E|FA cB|GA FD|EG FD|E3 c|
BG EB|A3 B|AF DA|G3 G|FD B,A|GE CG|FD B,D|
"^B" C2 E/F/E/F/|GC G/A/G/F/|EC E/F/E/F/|GC G/A/G/F/|
EC E/F/E/F/|G/A/G/A/ B/G/A/B/|c/B/c/G/ d/c/B/A/|B/A/B/G/ c/B/A/G/|
A/G/A/F/ B/A/G/F/|G/F/G/E/ A/G/F/E/|F/E/F/D/ G/F/E/D/|E/D/E/C/ F/E/D/C/|D/C/D/B,/ E/D/C/B,/|
"^C" C2 EG|c2 d/c/B/d/|cG EG|c2 d/c/B/d/|
cG EG|AG/F/ cA|GF/E/ cG|FE/D/ GG|
C2 EG|c2 d/c/B/d/|cG EG|c2 d/c/B/d/|
cG EG|AG/F/ cA|GF/E/ cG|FE/D/ GG|C3 E|
"^D" G>E C/D/E/F/|G>F DC|B,/C/D/E/ FA|
A>G EC|G>E C/D/E/F/|G>F DC|B,/C/D/E/ F/D/G|
C3 E|G>E C/D/E/F/|G>F DC|B,/C/D/E/ FA|
A>G EC|G>E C/D/E/F/|G>F DC|B,/C/D/E/ F/D/G|C4||

